X:1
T:Title
%%score { ( 1 3 ) | ( 2 4 ) }
L:1/8
M:4/4
K:Bb
V:1 treble nm="Grand Piano"
V:3 treble 
V:2 bass 
V:4 bass 
V:1
 z4 z2[Q:1/4=100] [B,D][CE] | [DF]3 [_DG] [=DF]2 [DB]2 | [EB]3 [EA] A3 e | e3 G A2 e2 | %4
 [Ge]3 [Fd] [Fd]2 [B,D][CE] | [DF]3 [_DG] [=DF]2 [Fd]2 | [^Fd]3 [Fc] [GB]4 | z4 [Fc]2 f2 | %8
[M:9/8] A2 [=EG]- [EG] z z e3 |[M:4/4] [Fd]2 [Ec]>[DB] [DF]2 D>D |[M:7/8] F2 =E2 _E3 |[M:1/8] F | %12
[M:4/4] e2 d>c G2 A2 | [EG]2 [DF]2 [Fd]3 d | d>d [^Fd]>[Fc] B3 B | _d2 B2 =d4 | %16
[M:9/8] [Af]2 G- G/A/ d2 B3 | %17
[M:7/8] B2 c2 [DFB]3[Q:1/4=98][Q:1/4=97][Q:1/4=95][Q:1/4=94][Q:1/4=92][Q:1/4=91][Q:1/4=89][Q:1/4=88][Q:1/4=86][Q:1/4=84][Q:1/4=83][Q:1/4=81][Q:1/4=80][Q:1/4=78][Q:1/4=77] |] %18
V:2
 z4 z2 [B,,F,]2 | [B,,B,]3 [B,,B,] [B,,B,]2 [B,,F,]2 | [C,F,]3 [C,F,] [F,CE]3 [F,A,F] | %3
 [F,A,F]3 [F,B,E] [F,CE]2 [F,A,F]2 | [B,,B,]3 [B,,B,] [B,,B,]2 [B,,F,]2 | %5
 [B,,B,]3 [B,,B,] [B,,B,]2 [B,,B,]2 | [D,A,]3 [D,D] [G,D]4 | z4 z2[K:treble] F2 | %8
[M:9/8] [CF]2[K:bass] [C,B,]- [C,B,] [F,A,]2- [F,A,]3 | %9
[M:4/4] [B,,B,]2 [B,,F,]>[B,,F,] [B,,B,]2 [B,,F,B,]>[B,,F,B,] | %10
[M:7/8] [D,F,B,]2 [_D,G,B,]2 [C,F,A,]3 |[M:1/8] [F,A,E] | %12
[M:4/4] [F,A,F]2 [F,A,F]>[F,A,E] [F,CE]2 [F,CE]2 | [B,,B,]2 [B,,B,]2 [B,,B,]3[K:treble] [B,F] | %14
 [A,C^F]>[A,CF][K:bass] [D,C]>[D,D][K:treble] [G,DG]3 [G,DG] | [^F,B,=E]2 [F,_DE]2 [=F,B,F]4 | %16
[M:9/8] [F,C]2 [F,CE]- [F,CE]/[F,CE]/ [F,B,F]2 [G,C=E]3 |[M:7/8] [F,DF]2 [F,EF]2 B,,3 |] %18
V:3
 x8 | x8 | x8 | x8 | x8 | x8 | x8 | [=Ec]2 [EG][Ed] z B, z D |[M:9/8] z3 z F2- F3 |[M:4/4] x8 | %10
[M:7/8] x7 |[M:1/8] x |[M:4/4] x8 | x8 | x8 | x8 |[M:9/8] x9 |[M:7/8] x7 |] %18
V:4
 x8 | x8 | x8 | x8 | x8 | x8 | x8 | [C,B,]2 [C,B,][C,B,] [F,A,]G,[K:treble][A,C]B, | %8
[M:9/8] x2[K:bass] x7 |[M:4/4] x8 |[M:7/8] x7 |[M:1/8] x |[M:4/4] x8 | x7[K:treble] x | %14
 x2[K:bass] x2[K:treble] x4 | x8 |[M:9/8] x9 |[M:7/8] x7 |] %18

